!!!!SEGMENT: pl-sa--l-1636--041_anonim--preambulum.krn
!!!cenid: 17xx:748
!!!COM: Anonim
!!!COM-rismid: pe30004985
!!!CDT:
!!!CNT:
!!!OTL: Preambulum
!!!PDT:
!!!AGN: Secular; Prelude
!!!SMS-siglum: PL-SA
!!!SMS-shelfmark: L 1636
!!!SMS-shelfwork: 041 W
!!!SMS-variant:
!!!SMS-altvar:
!!!NIFC-rismid: 1001076520
!!!URL-scan: http://repozytorium.nifc.pl/skany/pl-sa-nut--l1636
!!!ONB-nifc: 11v-12r, skan 0015, s. 1-5
!!!key:
**kern	**kern
*group1	*group1
*part2	*part1
*staff2	*staff1
*Iempty	*Iempty
*I"	*I"
*clefF4	*clefC1
*k[b-]	*k[b-]
*F:	*F:
*M2/2	*M2/2
*met(c|)	*met(c|)
=1	=1
!	!LO:TX:a:t=P:problem:brak kreskim taktowej
!	!LO:TX:a:t=P:problem:uszkodzony papier
!LO:TX:a:t=P:problem:brak kreskim taktowej	!LO:TX:b:t=Perambulum
!LO:TX:a:t=P:problem:wszystkie caudy z prawej	!LO:TX:a:t=P:problem:wszystkie caudy z prawej
1FF 1C 1F	1ryy
=2	=2
*	*^
*	*	*^
*2\right	*2\right	*2\right	*2\right
2CC/ 2C	1cc	2e\	2g/
2FF/ 2C 2F	.	2f\	2a/
*	*v	*v	*v
=3	=3
4BB-/	1f 1b- 1dd
4C/	.
!LO:TX:a:t=P:problem:8\right:global	!
8D\L	.
8C\	.
8D\	.
8E\J	.
=4	=4
!LO:TX:a:t=P:problem:4\right:global	!
4F\	1f 1a 1cc
4G\	.
4A\	.
4F\	.
=5	=5
1G 1B- 1d	1g 1b-
=6	=6
*^	*
!	!	!LO:TX:a:t=P:problem:brak kreskim taktowej
2d/	2D\	1f 1a
[2c/	[2F\	.
!	!	!LO:TX:a:t=P:problem:brak kreskim taktowej
=7	=7	=7-zz
1c]	2F\]	1g
.	2E\	.
=8	=8	=8
1A	2.D\	2.f/
.	4C\	4e/
=9	=9	=9
[1B-	1BB- 1F	4d/
.	.	4e/
.	.	8f/L
.	.	8e/
.	.	8f/
.	.	8d/J
!!LO:LB:g=original
=10	=10	=10
2B-/]	[1C	4e/
.	.	4c/
2A/	.	[2f/
*v	*v	*
=11	=11
*	*^
1C] 1G	4f/]	2ryy
.	8e/L	.
.	8d/J	.
.	2e/	4c\
.	.	4B-\
*	*v	*v
=12	=12
*^	*
2C/ 2F	2FF\	2A/ 2c 2f
*clefC4	*	*
2A/ 2c	2F\	2a\
=13	=13	=13
2B-/ 2d	2G\	2b-\
2c/	2A\	2cc\
=14	=14	=14
2d/	2B-\	2dd\
2e/	2G\	2b-\
=15	=15	=15
!	!	!LO:TX:a:t=P:problem:4\right:global
[2f/	1F	4a\
.	.	4b-\
2f/]	.	4cc\
.	.	4a\
=16	=16	=16
!	!	!LO:SIC:s=2bn:v
2f/	[1G	2b#X\
2e/	.	[2cc\
=17	=17	=17
1d	1G]	2cc\]
!	!	!LO:SIC:s=2bn:v
.	.	2b#X\
!!LO:LB:g=original
=18	=18	=18
!	!	!LO:TX:a:t=P:problem:8\right:global
[1c	1C	8cc\L
.	.	8dd\
.	.	8ee-X\
.	.	8dd\J
.	.	8cc\L
.	.	8b-\
.	.	8a\
.	.	8g\J
=19	=19	=19
2c/]	[1D	2f#X/
2B-/	.	[2g/
=20	=20	=20
1A	1D]	2g/]
.	.	2f#X/
*clefF4	*	*
=21	=21	=21
[1G	1GG	8g\L
.	.	8a\
.	.	8b-\
.	.	8a\J
.	.	8g\L
.	.	8f\
.	.	8e\
.	.	8d\J
=22	=22	=22
2G/]	1AA	2c#X/
2F/	.	[2d/
=23	=23	=23
1E	1AA	2d/]
.	.	2c#X/
=24	=24	=24
2.D/	1DD	4d/
.	.	4e/
.	.	4f/
4E/	.	4g\
=25	=25	=25
*	*	*^
1F	1FF	4a/	4f\
.	.	4b-/	4g\
.	.	4cc/	4a\
.	.	4a/	4f\
*	*	*v	*v
!!LO:LB:g=original
=26	=26	=26
2F/	1GG	1g 1b-
2E/	.	.
*v	*v	*
=27	=27
4FF/	1f 1a
4GG/	.
4AA/	.
4BB-/	.
=28	=28
4C/	1e 1g
4D/	.
4E/	.
4C/	.
=29	=29
4F\	1f 1a
4FF/	.
4AA/	.
4FF/	.
=30	=30
4C/	1e 1g 1cc
4D/	.
4E/	.
4F/	.
=31	=31
4G\	1g 1b- 1dd
4GG/	.
4BB-/	.
4GG/	.
=32	=32
4D\	1d 1f 1a
4E\	.
4F\	.
4G\	.
=33	=33
4A\	1c#X 1e 1a
4G\	.
4F\	.
4E\	.
=34	=34
4D\	1d 1f#X 1a
4E\	.
4F#X\	.
4D\	.
=35	=35
4G\	1d 1g 1b-X
4AA/	.
4BB-/	.
4GG/	.
!!LO:PB:g=original
=36	=36
4C/	1e 1g 1cc
4CC/	.
4EE/	.
4CC/	.
=37	=37
4F\	1f 1a 1cc
4FF/	.
4AA/	.
4FF/	.
=38	=38
8BB-/L	1f 1b- 1dd
8C/	.
8D/	.
8C/J	.
8BB-/L	.
8C/	.
8D/	.
8E/J	.
=39	=39
4F\	1f 1a 1cc
4G\	.
4A\	.
4F\	.
=40	=40
4B-\	1d 1f 1b-
8A\L	.
8G\J	.
8F\L	.
8E\	.
8D\	.
8C\J	.
=41	=41
*^	*
[1B-	1BB-	4d/
.	.	4e/
.	.	8f/L
.	.	8e/
.	.	8f/
.	.	8d/J
=42	=42	=42
*	*	*^
4B-/]	1C	8e/L	2ryy
.	.	8c/J	.
4A/	.	4f/	.
!	!	!LO:TX:a:t=P:problem:uszkodzony papier	!
!	!	!LO:TX:a:t=P:problem:uszkodzony papier	!
2G/	.	4g/	8ryy
!	!	!	!LO:TX:a:t=P:problem:16\right:global
.	.	.	16e\LL
.	.	.	16d\JJ
.	.	4e/	8c\L
.	.	.	8B-\J
*v	*v	*	*
*	*v	*v
=43	=43
1FF 1C 1F	1A 1c 1f
==	==
*-	*-
!!!system-decoration: [(g1)]
!!!AIN: 2 empty
!!!ENC: Anna Matuszewska
!!!END: 2020-12-08
!!!ENC: Andrzej Borzym
!!!END: 2020-06-11
